X: 1
T:Golden Blue
C:Susie Staplehurst
M:3/4
L:1/8
Q:1/4=120
K:Dmaj
%
DE | "D"F2- FE FE | D2 E2 F2 | "C"G2- GF ED | "A"C4 E2 |
"Em"G2 F2 E2 | "D"D2 C2 D2 | "Em"E2 F2 E2- | E4 DE |
"D"F2- FE FE | D2 E2 F2 | "C"G2- GF ED | "A"C4 E2 |
"Em"G2 F2 E2 | "D"D2 C2 D2 | "A"A,2 C2 E2 | "D"D4 :|
|:dc | "Bm"B2 c2 d2 | "Em"e2 d2 e2 | "C"g2 f2 e2 | "Bm"f4 e2 |
"A"a2 g2 f2 | "Em"e2 d2 e2 | "C"g2 f2 d2 | "Em"e4 dc |
"Bm"B2 c2 d2 | "Em"e2 d2 e2 | "C"g2 f2 e2 | "Bm"f4 e2 |
"A"a2 g2 f2 | "Em"e2 d2 c2 | "A"A2 d2 c2 | "Bm"B4 :|



